X:107
T:score193
L:1/4
Q:1/4=96
M:4/4
I:linebreak $
K:G
!p! (g f e B) | (d2 A2) |!<(! (G (3A/B/!<)!d/)!>(! (b a)!>)! |$ a4 | %4
!<(! c' (B/!<)!c/)!>(! (b!>)! a) | g (F/G/) (f e) |!<(! d2 (E G)!<)! |$!>(! (B2 A)!>)!"_rit." z |] %8
